Yaru++/apps/scalable/igdm.svg

<svg height="256" width="256" xmlns="http://www.w3.org/2000/svg" xmlns:xlink="http://www.w3.org/1999/xlink">
  <linearGradient id="linearGradient4358" gradientUnits="userSpaceOnUse" x1="88" x2="488" y1="88" y2="488">
    <stop offset="0" stop-opacity=".588235"/>
    <stop offset="1" stop-opacity=".205556"/>
  </linearGradient>
  <filter id="filter4380" color-interpolation-filters="sRGB" height="1.088" width="1.106" x="-.05" y="-.04">
    <feGaussianBlur stdDeviation="8.48"/>
  </filter>
  <filter id="filter4346" color-interpolation-filters="sRGB" height="1.022" width="1.026" x="-.01" y="-.01">
    <feGaussianBlur stdDeviation="2.12"/>
  </filter>
  <linearGradient id="linearGradient875" gradientUnits="userSpaceOnUse" x1="25.689" x2="233.139" y1="22.935" y2="226.815">
    <stop offset="0" stop-color="#64237d"/>
    <stop offset=".477" stop-color="#b637b9"/>
    <stop offset="1" stop-color="#fb7c38"/>
  </linearGradient>
  <path d="m141.84323 74c-70.59344 0-78.18921 7.250835-77.84323 77.98706v146.01294 146.01294c-.34598 70.73623 7.24979 77.98706 77.84323 77.98706h292.31354c70.59344 0 79.78033-7.27652 77.84323-77.98706v-146.01294-146.01294c0-70.737067-7.24979-77.98706-77.84323-77.98706z" filter="url(#filter4346)" opacity=".1" transform="matrix(.5 0 0 .5 -16.116488 -20.825537)"/>
  <path d="m141.84323 74c-70.59344 0-78.18921 7.250835-77.84323 77.98706v146.01294 146.01294c-.34598 70.73623 7.24979 77.98706 77.84323 77.98706h292.31354c70.59344 0 79.78033-7.27652 77.84323-77.98706v-146.01294-146.01294c0-70.737067-7.24979-77.98706-77.84323-77.98706z" fill="url(#linearGradient4358)" filter="url(#filter4380)" opacity=".3" transform="matrix(.5 0 0 .5 -16.116488 -20.825235)"/>
  <path d="m53.695112 13.174464c-36.098811 0-39.983002 3.690159-39.80608 39.689839v74.310167 74.31016c-.176922 35.99969 3.707269 39.68984 39.80608 39.68984h148.387318c36.09881 0 40.77464-3.70276 39.80608-39.68984v-74.31016-74.310167c0-36.00011-3.70727-39.689839-39.80608-39.689839z" opacity=".2"/>
  <path d="m200.95649 15.174464c35.29673 0 39.09461 3.625419 38.92162 38.993529v73.006477 73.00647c.17299 35.36812-3.62489 38.99353-38.92162 38.99353h-146.156758c-35.296716 0-38.921616-3.625-38.921616-38.99353v-73.00647-73.006477c0-35.36853 3.6249-38.993529 38.921616-38.993529z" fill="url(#linearGradient875)"/>
  <path d="m54.805392 15.174464c-35.296728 0-39.09487 3.626029-38.92188 38.994139v2c-.17299-35.36811 3.625152-38.99414 38.92188-38.99414h146.156238c35.29673 0 38.92188 3.62561 38.92188 38.99414v-2c0-35.36853-3.62515-38.994139-38.92188-38.994139z" fill="#fff" opacity=".3"/>
  <path d="m54.810792 239.17447c-35.296731 0-39.094875-3.62603-38.921885-38.99414v-2c-.17299 35.36811 3.625154 38.99414 38.921885 38.99414h146.156238c35.29673 0 38.92188-3.62561 38.92188-38.99414v2c0 35.36853-3.62515 38.99414-38.92188 38.99414z" opacity=".2"/>
  <g fill="#fff">
    <path d="m207.31055 360.66602c-7.70776 2.59789-14.64063 6.28515-14.64063 6.28515l5.58399 2.78906 2.79101 5.58204.01.01s3.8674-7.30205 6.27539-14.66211c-.00066-.00067-.002-.002-.004-.002-.00066-.00066-.004.00025-.006 0-.00067-.00067-.003.00065-.004 0-.00047-.00047-.003-.002-.004-.002zm-1.77344 1.79296c-1.82939 5.0036-3.58428 8.82682-4.49414 10.62305l-1.7207-3.44336c1.43203-1.54272 4.29366-5.2546 5.51171-6.47265-1.21758 1.21758-4.92685 4.07714-6.4707 5.50976l-3.4375-1.7168c1.76411-.89429 5.48919-2.60188 10.61133-4.5z" transform="matrix(10.914299 0 0 10.914299 -2054.9802 -3889.2782)"/>
    <circle cx="215.615" cy="39.267" r="8"/>
  </g>
</svg>

<svg xmlns="http://www.w3.org/2000/svg" xmlns:xlink="http://www.w3.org/1999/xlink" width="256" height="256" version="1.0">
 <defs>
  <linearGradient id="linearGradient873">
   <stop style="stop-color:#64237d" id="stop869" offset="0"/>
   <stop id="stop877" offset=".477" style="stop-color:#b637b9"/>
   <stop style="stop-color:#fb7c38" id="stop871" offset="1"/>
  </linearGradient>
  <linearGradient id="a">
   <stop id="stop2" offset="0" stop-color="#68676b"/>
   <stop id="stop4" offset=".8" stop-color="#424048"/>
   <stop id="stop6" offset="1" stop-color="#241f31"/>
  </linearGradient>
  <radialGradient id="d" cx="279.422" cy="446.483" r="224" fx="279.422" fy="446.483" gradientTransform="matrix(1.34416,6e-4,-6.2e-4,1.38763,-121.22,-718.103)" gradientUnits="userSpaceOnUse" xlink:href="#a"/>
  <linearGradient id="e" x1="43.844" x2="-60" y1="234" y2="234" gradientTransform="matrix(1.0015,0,0,0.99993,72.09,56.015)" gradientUnits="userSpaceOnUse" xlink:href="#b"/>
  <linearGradient id="b">
   <stop id="stop11" offset="0" stop-color="#d5d3cf"/>
   <stop id="stop13" offset=".038" stop-color="#e3e2df"/>
   <stop id="stop15" offset=".077" stop-color="#c0bfbc"/>
   <stop id="stop17" offset=".923" stop-color="#c0bfbc"/>
   <stop id="stop19" offset=".962" stop-color="#e3e2df"/>
   <stop id="stop21" offset="1" stop-color="#d5d3cf"/>
  </linearGradient>
  <linearGradient id="linearGradient1007" x1="160.305" x2="161.33" y1="240.139" y2="135.579" gradientTransform="matrix(0.54625232,0,0,0.54625232,-6.0941965,-68.413544)" gradientUnits="userSpaceOnUse" xlink:href="#linearGradient1018"/>
  <linearGradient id="linearGradient1018">
   <stop id="stop2-3" offset="0" style="stop-color:#37a6e6"/>
   <stop id="stop4-6" offset="1" style="stop-color:#1a7fd4"/>
  </linearGradient>
  <clipPath id="clipPath1082-3" clipPathUnits="userSpaceOnUse">
   <path style="fill:#8c59d9" d="M 361.9375,-212 C 507.2348,-212 528,-191.28677 528,-46.125 V 70.125 C 528,215.28618 507.2348,236 361.9375,236 H 214.0625 C 68.7652,236 48,215.28618 48,70.125 V -46.125 C 48,-191.28677 68.7652,-212 214.0625,-212 Z"/>
  </clipPath>
  <linearGradient id="linearGradient4358" x1="88" x2="488" y1="88" y2="488" gradientUnits="userSpaceOnUse" xlink:href="#linearGradient4360"/>
  <linearGradient id="linearGradient4360">
   <stop id="stop4362" offset="0" style="stop-color:#000000;stop-opacity:0.58823532"/>
   <stop id="stop4366" offset="1" style="stop-color:#000000;stop-opacity:0.20555556"/>
  </linearGradient>
  <filter style="color-interpolation-filters:sRGB" id="filter4380" width="1.106" height="1.088" x="-.05" y="-.04">
   <feGaussianBlur id="feGaussianBlur4382" stdDeviation="8.48"/>
  </filter>
  <filter style="color-interpolation-filters:sRGB" id="filter4346" width="1.026" height="1.022" x="-.01" y="-.01">
   <feGaussianBlur id="feGaussianBlur4348" stdDeviation="2.12"/>
  </filter>
  <linearGradient id="linearGradient1559" x1="6.235" x2="62.07" y1="235.542" y2="288.912" gradientTransform="matrix(3.7797136,0,0,3.7797136,-284.01549,-843.53085)" gradientUnits="userSpaceOnUse">
   <stop style="stop-color:#62237c" id="stop8" offset="0"/>
   <stop style="stop-color:#c43ac4" id="stop14" offset=".498"/>
   <stop style="stop-color:#fb7c38" id="stop20" offset="1"/>
  </linearGradient>
  <linearGradient id="linearGradient875" x1="25.689" x2="233.139" y1="22.935" y2="226.815" gradientUnits="userSpaceOnUse" xlink:href="#linearGradient873"/>
 </defs>
 <path style="opacity:0.1;filter:url(#filter4346)" d="M 141.84323,74 C 71.24979,74 63.65402,81.250835 64,151.98706 V 298 444.01294 C 63.65402,514.74917 71.24979,522 141.84323,522 H 434.15677 C 504.75021,522 513.9371,514.72348 512,444.01294 V 298 151.98706 C 512,81.249993 504.75021,74 434.15677,74 Z" transform="matrix(0.5,0,0,0.5,-16.116488,-20.825537)"/>
 <path style="opacity:0.3;fill:url(#linearGradient4358);filter:url(#filter4380)" d="M 141.84323,74 C 71.24979,74 63.65402,81.250835 64,151.98706 V 298 444.01294 C 63.65402,514.74917 71.24979,522 141.84323,522 H 434.15677 C 504.75021,522 513.9371,514.72348 512,444.01294 V 298 151.98706 C 512,81.249993 504.75021,74 434.15677,74 Z" transform="matrix(0.5,0,0,0.5,-16.116488,-20.825235)"/>
 <path style="opacity:0.2" d="m 53.695112,13.174464 c -36.098811,0 -39.983002,3.690159 -39.80608,39.689839 v 74.310167 74.31016 c -0.176922,35.99969 3.707269,39.68984 39.80608,39.68984 H 202.08243 c 36.09881,0 40.77464,-3.70276 39.80608,-39.68984 V 127.17447 52.864303 c 0,-36.00011 -3.70727,-39.689839 -39.80608,-39.689839 z"/>
 <path style="fill:url(#linearGradient875)" d="m 200.95649,15.174464 c 35.29673,0 39.09461,3.625419 38.92162,38.993529 v 73.006477 73.00647 c 0.17299,35.36812 -3.62489,38.99353 -38.92162,38.99353 H 54.799732 c -35.296716,0 -38.921616,-3.625 -38.921616,-38.99353 V 127.17447 54.167993 c 0,-35.36853 3.6249,-38.993529 38.921616,-38.993529 z"/>
 <path style="opacity:0.3;fill:#ffffff" d="m 54.805392,15.174464 c -35.296728,0 -39.09487,3.626029 -38.92188,38.994139 v 2 c -0.17299,-35.36811 3.625152,-38.99414 38.92188,-38.99414 H 200.96163 c 35.29673,0 38.92188,3.62561 38.92188,38.99414 v -2 c 0,-35.36853 -3.62515,-38.994139 -38.92188,-38.994139 z"/>
 <path style="opacity:0.2" d="m 54.810792,239.17447 c -35.296731,0 -39.094875,-3.62603 -38.921885,-38.99414 v -2 c -0.17299,35.36811 3.625154,38.99414 38.921885,38.99414 H 200.96703 c 35.29673,0 38.92188,-3.62561 38.92188,-38.99414 v 2 c 0,35.36853 -3.62515,38.99414 -38.92188,38.99414 z"/>
 <g style="fill:#ffffff" transform="matrix(10.914299,0,0,10.914299,-2054.9802,-3889.2782)">
  <path style="fill:#ffffff" d="m 207.31055,360.66602 c -7.70776,2.59789 -14.64063,6.28515 -14.64063,6.28515 l 5.58399,2.78906 2.79101,5.58204 0.01,0.01 c 0,0 3.8674,-7.30205 6.27539,-14.66211 -6.6e-4,-6.7e-4 -0.002,-0.002 -0.004,-0.002 -6.6e-4,-6.6e-4 -0.004,2.5e-4 -0.006,0 -6.7e-4,-6.7e-4 -0.003,6.5e-4 -0.004,0 -4.7e-4,-4.7e-4 -0.003,-0.002 -0.004,-0.002 z m -1.77344,1.79296 c -1.82939,5.0036 -3.58428,8.82682 -4.49414,10.62305 l -1.7207,-3.44336 c 1.43203,-1.54272 4.29366,-5.2546 5.51171,-6.47265 -1.21758,1.21758 -4.92685,4.07714 -6.4707,5.50976 l -3.4375,-1.7168 c 1.76411,-0.89429 5.48919,-2.60188 10.61133,-4.5 z"/>
 </g>
 <circle style="fill:#ffffff" cx="215.615" cy="39.267" r="8"/>
</svg>
